X:74
T:T033A- The Cuckoo's Nest
S:Rutherford's 3rd colln of 200 CDs, c 1772
Q:Q:1/4=120
L:1/8
M:2/4
K:D
A/G/|F/E/F/D/ f/e/f/d/|c/A/G/F/ G/B/A/G/|{G/}FE/D/ C/D/E/F/|\
GE EA/G/|F/E/F/D/ f/e/f/d/|c/A/G/F/ G/B/A/G/|FE/D/ C/D/E/G/|\
F/D/ D|A|d3/2e/ d/f/e/d/|cA AB|=c3/2d/ c/e/d/c/|BG GA/G/|\
F/E/F/D/ f/e/f/d/|c/A/G/F/ G/B/A/G/|{G/}FE/D/ C/D/E/G/|FD D||\
F/G/|A/F/D/F/ A/F/D/F/|A/G/F/E/ DE/F/|G/E/C/E/ G/E/C/E/|\
G/F/E/D/ CA/G/|F/E/F/D/ f/e/f/d/|c/A/G/F/ G/B/A/G/|\
{G/}FE/D/ C/D/E/G/|FD D|]

